X:05031
T: Jenny's Bawbee [AABBAB]
R: strathspey
B: RSCDS 5-3
Z: 1997 by John Chambers <jc:trillian.mit.edu>
M: C
L: 1/16
%--------------------
K: D
"A"|: f2 \
| "D"a3b a3g fd3 d3f | "Em"g3B e3d "A7"cA3 A3f \
| "D"a3b a3g fd3 d3f | "G"BB3 "A7"c3A "D"[d6F6] :|
"B"|: de \
| "D"f3d "A7"g3e "D"fd3 d2ef | "Em"g3B e3d "A7"cA3 A2de \
| "D"f3d "A7"g3e "D"fd3 fa3 | "G"BB3 "A7"c3A "D"[d6F6] :|
